X: 3947
T: Blackbird, The
R: hornpipe
M: 4/4
K: Dmixolydian
|:dc|B3G A2(3AB^c|d=cAF G2FG|AFDE FAGF|DEFG A2 dc|
B3G A2(3AB^c|d=cAF G2FG|AFDE FAGF|D2 D2 D2:|
|:FG|Add^c d2(3efg|fded =cAGB|Add^c dfag|f2d2 d2(3gfe|
dcAF G2(3AB^c|d2AG F2DE|FGAF GBAG|F2D2 D2:|

